jsapp/svg-icons/qt-qr-code.svg

<svg height="642" viewBox="0 0 642 642" width="642" xmlns="http://www.w3.org/2000/svg"><path d="m97 288.74h192v-192h-192zm64-128h64v64h-64zm192-64v192h192v-192zm128 128h-64v-64h64zm-384 320h192v-192h-192zm64-128h64v64h-64zm352-64h32v128h-96v-32h-32v96h-64v-192h96v32h64zm0 160h32v32h-32zm-64 0h32v32h-32z"/></svg>

<svg id="Layer_1" data-name="Layer 1" xmlns="http://www.w3.org/2000/svg" viewBox="0 0 642 642"><path d="M97,288.74H289v-192H97Zm64-128h64v64H161Zm192-64v192H545v-192Zm128,128H417v-64h64Zm-384,320H289v-192H97Zm64-128h64v64H161Zm352-64h32v128H449v-32H417v96H353v-192h96v32h64Zm0,160h32v32H513Zm-64,0h32v32H449Z"/></svg>
